icon-themes/sifr_svg/cmd/lc_scaletext.svg

<svg viewBox="0 0 24 24" xmlns="http://www.w3.org/2000/svg"><path d="m18.5625 1-.28125.28125-4 4c-.18821.18818-.28125.45346-.28125.71875v1h1c.26531.00004.53057-.09314.71875-.28125l2.28125-2.28125v15.125l-2.28125-2.28125c-.18818-.18811-.45344-.28129-.71875-.28125h-1v1c0 .26529.09304.53057.28125.71875l4 4 .28125.28125h.875l.28125-.28125 4-4c.18814-.18817.28122-.45344.28125-.71875v-1h-1c-.2653 0-.53058.0931-.71875.28125l-2.28125 2.28125v-15.125l2.28125 2.28125c.18817.18815.45345.28125.71875.28125h1v-1c-.00003-.26531-.09311-.53058-.28125-.71875l-4-4-.28125-.28125zm-14.5625 3v3h8c.365911 0 .70494.1057639 1 .2773438v-1.2773438c0-.499097.170236-1.021863.574219-1.4257812l.226562-.2265626c-.560393-.217267-1.163646-.3476562-1.800781-.3476562zm12.652344 3.1992188-.226563.2265624c-.403713.4035631-.926229.5742941-1.425781.5742188h-1.277344c.17158.29506.277344.634089.277344 1v1h-8.5c-2.4852814 0-4.5 2.014719-4.5 4.5s2.0147186 4.5 4.5 4.5h7.761719c-.1758-.315394-.261719-.66207-.261719-1v-2h-7.5c-.8284271 0-1.5-.671573-1.5-1.5s.6715729-1.5 1.5-1.5h8.5v3h1c.499552-.000075 1.022068.170656 1.425781.574219l.574219.574219v-5.148438-3c0-.6371351-.130389-1.2403876-.347656-1.8007812z" fill="#555753"/></svg>

<svg xmlns="http://www.w3.org/2000/svg" viewBox="0 0 24 24">
  <path
     style="fill:#555753"
     d="M 18.5625 1 L 18.28125 1.28125 L 14.28125 5.28125 C 14.09304 5.46943 14 5.73471 14 6 L 14 7 L 15 7 C 15.26531 7.00004 15.53057 6.90686 15.71875 6.71875 L 18 4.4375 L 18 19.5625 L 15.71875 17.28125 C 15.53057 17.09314 15.26531 16.99996 15 17 L 14 17 L 14 18 C 14 18.26529 14.09304 18.53057 14.28125 18.71875 L 18.28125 22.71875 L 18.5625 23 L 19.4375 23 L 19.71875 22.71875 L 23.71875 18.71875 C 23.90689 18.53058 23.99997 18.26531 24 18 L 24 17 L 23 17 C 22.7347 17 22.46942 17.0931 22.28125 17.28125 L 20 19.5625 L 20 4.4375 L 22.28125 6.71875 C 22.46942 6.9069 22.7347 7 23 7 L 24 7 L 24 6 C 23.99997 5.73469 23.90689 5.46942 23.71875 5.28125 L 19.71875 1.28125 L 19.4375 1 L 18.5625 1 z M 4 4 L 4 7 L 12 7 C 12.365911 7 12.70494 7.1057639 13 7.2773438 L 13 6 C 13 5.500903 13.170236 4.978137 13.574219 4.5742188 L 13.800781 4.3476562 C 13.240388 4.1303892 12.637135 4 12 4 L 4 4 z M 16.652344 7.1992188 L 16.425781 7.4257812 C 16.022068 7.8293443 15.499552 8.0000753 15 8 L 13.722656 8 C 13.894236 8.29506 14 8.634089 14 9 L 14 10 L 5.5 10 C 3.0147186 10 1 12.014719 1 14.5 C 1 16.985281 3.0147186 19 5.5 19 L 13.261719 19 C 13.085919 18.684606 13 18.33793 13 18 L 13 16 L 5.5 16 C 4.6715729 16 4 15.328427 4 14.5 C 4 13.671573 4.6715729 13 5.5 13 L 14 13 L 14 16 L 15 16 C 15.499552 15.999925 16.022068 16.170656 16.425781 16.574219 L 17 17.148438 L 17 12 L 17 9 C 17 8.3628649 16.869611 7.7596124 16.652344 7.1992188 z "
     />
</svg>
